src/build/icons/LineIcons/calendar.svg

<svg width="38" height="40" version="1.1" viewBox="0 -2 38 40" xmlns="http://www.w3.org/2000/svg">
 <g fill="none" fill-rule="evenodd">
  <g transform="translate(-305,-357)" fill="#f00">
   <path d="m323 383h2v2h-2zm0 4h2c1.104 0 2-0.896 2-2v-2c0-1.104-0.896-2-2-2h-2c-1.104 0-2 0.896-2 2v2c0 1.104 0.896 2 2 2zm-8-4h2v2h-2zm0 4h2c1.104 0 2-0.896 2-2v-2c0-1.104-0.896-2-2-2h-2c-1.104 0-2 0.896-2 2v2c0 1.104 0.896 2 2 2zm8-12h2v2h-2zm0 4h2c1.104 0 2-0.896 2-2v-2c0-1.104-0.896-2-2-2h-2c-1.104 0-2 0.896-2 2v2c0 1.104 0.896 2 2 2zm-8-4h2v2h-2zm0 4h2c1.104 0 2-0.896 2-2v-2c0-1.104-0.896-2-2-2h-2c-1.104 0-2 0.896-2 2v2c0 1.104 0.896 2 2 2zm22-12h-26v-2c0-1.104 0.896-2 2-2h4v1c0 0.553 0.447 1 1 1s1-0.447 1-1v-1h10v1c0 0.553 0.447 1 1 1s1-0.447 1-1v-1h4c1.104 0 2 0.896 2 2v2zm0 20c0 1.104-0.896 2-2 2h-22c-1.104 0-2-0.896-2-2v-18h26v18zm-2-26h-4v-1c0-0.552-0.447-1-1-1s-1 0.448-1 1v1h-10v-1c0-0.552-0.447-1-1-1s-1 0.448-1 1v1h-4c-2.209 0-4 1.791-4 4v22c0 2.209 1.791 4 4 4h22c2.209 0 4-1.791 4-4v-22c0-2.209-1.791-4-4-4zm-4 14h2v2h-2zm0 4h2c1.104 0 2-0.896 2-2v-2c0-1.104-0.896-2-2-2h-2c-1.104 0-2 0.896-2 2v2c0 1.104 0.896 2 2 2zm0 4h2v2h-2zm0 4h2c1.104 0 2-0.896 2-2v-2c0-1.104-0.896-2-2-2h-2c-1.104 0-2 0.896-2 2v2c0 1.104 0.896 2 2 2z"/>
  </g>
 </g>
</svg>

<svg width="38px" height="40px" viewBox="0 0 38 40" version="1.1" xmlns="http://www.w3.org/2000/svg" xmlns:xlink="http://www.w3.org/1999/xlink">
    <defs>
        <filter x="-1.7%" y="-0.9%" width="103.4%" height="101.8%" filterUnits="objectBoundingBox" id="filter-1">
            <feOffset dx="0" dy="2" in="SourceAlpha" result="shadowOffsetOuter1"></feOffset>
            <feGaussianBlur stdDeviation="2" in="shadowOffsetOuter1" result="shadowBlurOuter1"></feGaussianBlur>
            <feColorMatrix values="0 0 0 0 0   0 0 0 0 0   0 0 0 0 0  0 0 0 0.5 0" type="matrix" in="shadowBlurOuter1" result="shadowMatrixOuter1"></feColorMatrix>
            <feMerge>
                <feMergeNode in="shadowMatrixOuter1"></feMergeNode>
                <feMergeNode in="SourceGraphic"></feMergeNode>
            </feMerge>
        </filter>
    </defs>
    <g id="Page-1" stroke="none" stroke-width="1" fill="none" fill-rule="evenodd">
        <g id="Icon-Set" filter="url(#filter-1)" transform="translate(-305.000000, -357.000000)" fill="#FFFFFE">
            <path d="M323,383 L325,383 L325,385 L323,385 L323,383 Z M323,387 L325,387 C326.104,387 327,386.104 327,385 L327,383 C327,381.896 326.104,381 325,381 L323,381 C321.896,381 321,381.896 321,383 L321,385 C321,386.104 321.896,387 323,387 L323,387 Z M315,383 L317,383 L317,385 L315,385 L315,383 Z M315,387 L317,387 C318.104,387 319,386.104 319,385 L319,383 C319,381.896 318.104,381 317,381 L315,381 C313.896,381 313,381.896 313,383 L313,385 C313,386.104 313.896,387 315,387 L315,387 Z M323,375 L325,375 L325,377 L323,377 L323,375 Z M323,379 L325,379 C326.104,379 327,378.104 327,377 L327,375 C327,373.896 326.104,373 325,373 L323,373 C321.896,373 321,373.896 321,375 L321,377 C321,378.104 321.896,379 323,379 L323,379 Z M315,375 L317,375 L317,377 L315,377 L315,375 Z M315,379 L317,379 C318.104,379 319,378.104 319,377 L319,375 C319,373.896 318.104,373 317,373 L315,373 C313.896,373 313,373.896 313,375 L313,377 C313,378.104 313.896,379 315,379 L315,379 Z M337,367 L311,367 L311,365 C311,363.896 311.896,363 313,363 L317,363 L317,364 C317,364.553 317.447,365 318,365 C318.553,365 319,364.553 319,364 L319,363 L329,363 L329,364 C329,364.553 329.447,365 330,365 C330.553,365 331,364.553 331,364 L331,363 L335,363 C336.104,363 337,363.896 337,365 L337,367 L337,367 Z M337,387 C337,388.104 336.104,389 335,389 L313,389 C311.896,389 311,388.104 311,387 L311,369 L337,369 L337,387 L337,387 Z M335,361 L331,361 L331,360 C331,359.448 330.553,359 330,359 C329.447,359 329,359.448 329,360 L329,361 L319,361 L319,360 C319,359.448 318.553,359 318,359 C317.447,359 317,359.448 317,360 L317,361 L313,361 C310.791,361 309,362.791 309,365 L309,387 C309,389.209 310.791,391 313,391 L335,391 C337.209,391 339,389.209 339,387 L339,365 C339,362.791 337.209,361 335,361 L335,361 Z M331,375 L333,375 L333,377 L331,377 L331,375 Z M331,379 L333,379 C334.104,379 335,378.104 335,377 L335,375 C335,373.896 334.104,373 333,373 L331,373 C329.896,373 329,373.896 329,375 L329,377 C329,378.104 329.896,379 331,379 L331,379 Z M331,383 L333,383 L333,385 L331,385 L331,383 Z M331,387 L333,387 C334.104,387 335,386.104 335,385 L335,383 C335,381.896 334.104,381 333,381 L331,381 C329.896,381 329,381.896 329,383 L329,385 C329,386.104 329.896,387 331,387 L331,387 Z" id="Fill-168"></path>
        </g>
    </g>
</svg>
